!! 00000] TT[00
!!!OTL: Xi de yangmiao xiao kai yan
!!!ARE: Asia, China,ÿJiangsu, Yancheng
!! III, 478
!!!SCT: C1581
!!!YEM: Copyright 1995, estate of Helmut Schaffrath.
**kern
*ICvox
*Ivox
*M2/4
*k[f#c#]
*D:
{4a
8a
8f#
=1
8e
8d
4e}
=2
{4a
8a
8f#
=3
8e
8d
4e}
=4
{8a
16f#
16a
[4b
=5
4.b]
8dd
=6
8b
8a
4f#}
=7
{8b
16b
16a
8f#
8a
=8
8f#
8a
4f#
=9
8a
8a
8a
8d
=10
4e
4e}
=11
{4a
8a
8f#
=12
8e
8d
4e}
=13
{8a
16f#
16a
[4b
=14
8b]
8dd
8b
8a
=15
8.f#
16e
8d
8d
=16
2e}
=17
{4a
8a
8f#
=18
[2e
=19
2e]}
==
!!!AGN: Haozi, Cheshui haozi, Langtou diao
!!!ONB: ESAC (Essen Associative Code) Database: CHINA
!!!AMT: simple duple
!!!AIN: vox
!!!EED: Helmut Schaffrath
!!!EEV: 1.0
*-
!!!ONB: Tied note syntax fixed by Craig Sapp, 2004/05/03/
